img/fav.svg

<svg width="22" height="18" viewBox="0 0 22 18" fill="none" xmlns="http://www.w3.org/2000/svg">
<g id="Vector" clip-path="url(#clip0_610_4984)">
<path id="Vector_2" d="M20.6263 7.2765L20.6264 7.27636C20.6893 7.06488 20.734 6.86105 20.7828 6.63828C20.8036 6.54342 20.8251 6.44513 20.8492 6.34135C20.8492 6.06965 20.8491 5.79828 20.8487 5.52662C20.8484 5.5252 20.8482 5.52376 20.8479 5.52229C20.8364 5.46242 20.8188 5.37101 20.8101 5.29355L20.81 5.29236C20.7237 4.51061 20.5027 3.80456 20.055 3.18611L20.0549 3.18606C19.401 2.28254 18.4814 1.74748 17.3166 1.5184L17.3165 1.51838C16.366 1.33122 15.4575 1.29703 14.5703 1.55742L20.6263 7.2765ZM20.6263 7.2765C20.3975 8.04663 19.9745 8.74245 19.4232 9.38704C18.9905 9.89267 18.5265 10.3772 18.035 10.8282C16.3178 12.4036 14.5921 13.9701 12.8652 15.5376C12.3267 16.0264 11.7881 16.5153 11.2496 17.0046L11.2496 17.0047M20.6263 7.2765L11.2496 17.0047M11.2496 17.0047C11.0604 17.1766 10.9796 17.1811 10.9657 17.1811M11.2496 17.0047L10.9657 17.1811M9.32737 2.56391L9.32725 2.56382C7.95518 1.54139 6.44895 1.14617 4.73031 1.48887C3.58849 1.71658 2.66331 2.17961 2.00681 3.01784L9.32737 2.56391ZM9.32737 2.56391C9.63513 2.7931 9.93529 3.02579 10.237 3.2597C10.3777 3.36875 10.5187 3.47806 10.661 3.58741L10.9659 3.82178M9.32737 2.56391L10.9659 3.82178M10.9659 3.82178L11.2707 3.58715M10.9659 3.82178L11.2707 3.58715M11.2707 3.58715C11.4082 3.48124 11.5431 3.37578 11.6769 3.27111M11.2707 3.58715L11.6769 3.27111M10.9657 17.1811C10.9511 17.1811 10.8694 17.1757 10.6792 17.0027M10.9657 17.1811L10.6792 17.0027M10.6792 17.0027C9.9789 16.3657 9.27777 15.731 8.57714 15.0967M10.6792 17.0027L8.57714 15.0967M8.57714 15.0967C6.81474 13.5013 5.05555 11.9087 3.32149 10.2898M8.57714 15.0967L3.32149 10.2898M3.32149 10.2898C2.194 9.23694 1.36916 8.04535 1.14904 6.61209L3.32149 10.2898ZM11.6769 3.27111C11.9769 3.03652 12.2718 2.80593 12.5805 2.5833M11.6769 3.27111L12.5805 2.5833M12.5805 2.5833C13.2049 2.13349 13.8505 1.769 14.5702 1.55747L12.5805 2.5833ZM1.14904 6.61204C0.946952 5.29511 1.17525 4.07973 2.0068 3.01786L1.14904 6.61204Z" stroke="#707070"/>
</g>
<defs>
<clipPath id="clip0_610_4984">
<rect width="20.7691" height="16.8131" fill="white" transform="translate(0.580078 0.868042)"/>
</clipPath>
</defs>
</svg>

<svg width="22" height="18" fill="none" xmlns="http://www.w3.org/2000/svg"><g clip-path="url(#clip0_610_4984)"><path d="M20.626 7.277h0a8.9 8.9 0 00.157-.639c.02-.095.042-.193.066-.297v-.814l-.001-.005a2.636 2.636 0 01-.038-.228v-.002c-.086-.781-.307-1.487-.755-2.106h0c-.654-.903-1.574-1.439-2.738-1.668h0c-.951-.187-1.86-.221-2.747.04l6.056 5.718zm0 0c-.229.77-.652 1.465-1.203 2.11-.432.506-.896.99-1.388 1.441a1317.6 1317.6 0 01-5.17 4.71l-1.615 1.467h0m9.376-9.728l-9.376 9.728m0 0c-.19.172-.27.176-.284.176m.284-.176l-.284.176M9.327 2.564h0C7.955 1.54 6.45 1.146 4.73 1.489c-1.142.228-2.067.69-2.723 1.529l7.32-.454zm0 0c.308.23.608.462.91.696l.424.327.305.235M9.327 2.564l1.639 1.258m0 0l.305-.235m-.305.235l.305-.235m0 0l.406-.316m-.406.316l.406-.316m-.711 13.91c-.015 0-.097-.005-.287-.178m.287.178l-.287-.178m0 0c-.7-.637-1.401-1.272-2.102-1.906m2.102 1.906l-2.102-1.906m0 0a463.69 463.69 0 01-5.256-4.807m5.256 4.807L3.321 10.29m0 0C2.194 9.237 1.37 8.045 1.15 6.612l2.172 3.678zm8.356-7.019c.3-.234.595-.465.904-.688m-.904.688l.904-.688m0 0c.624-.45 1.27-.814 1.99-1.026l-1.99 1.026zM1.149 6.612c-.202-1.317.026-2.532.858-3.594l-.858 3.594z" stroke="#707070"/></g><defs><clipPath id="clip0_610_4984"><path fill="#fff" transform="translate(.58 .868)" d="M0 0h20.769v16.813H0z"/></clipPath></defs></svg>
